X:25
T: Szégyen lenne, hogy ha én azt nem tudnám...
O: Válaszút, Kallós Györgyné - Szakács Juliska "Minácsi", 1962
M:4/4
L:1/4
K:Bb
B/A/G/B/ d/c/d/B/ | A<G F z | 
d/d/B/d/ f/f/g/g/ | f<d d z | 
d/d/B/d/ f/f/g/g/ | f<d G z | 
B/A/G/B/ d/^c/d/B/ | A<G G z | 

